icons/lines/health.svg

<svg xmlns="http://www.w3.org/2000/svg" width="24" height="24" viewBox="0 0 24 24" fill="none" stroke="currentColor" stroke-width="2" stroke-linecap="round" stroke-linejoin="round" >
  <path d="M8.96973 22H14.9697C19.9697 22 21.9697 20 21.9697 15V9C21.9697 4 19.9697 2 14.9697 2H8.96973C3.96973 2 1.96973 4 1.96973 9V15C1.96973 20 3.96973 22 8.96973 22Z"/>
  <path d="M1.96973 12.7L7.96973 12.68C8.71973 12.68 9.55973 13.25 9.83973 13.95L10.9797 16.83C11.2397 17.48 11.6497 17.48 11.9097 16.83L14.1997 11.02C14.4197 10.46 14.8297 10.44 15.1097 10.97L16.1497 12.94C16.4597 13.53 17.2597 14.01 17.9197 14.01H21.9797"/>
  </svg>

<svg xmlns="http://www.w3.org/2000/svg" width="24" height="24" viewBox="0 0 24 24" fill="none" stroke="currentColor" stroke-width="2" stroke-linecap="round" stroke-linejoin="round">
  <path d="m1.97 12.7 6-.02c.75 0 1.59.57 1.87 1.27l1.14 2.88c.26.65.67.65.93 0l2.29-5.81c.22-.56.63-.58.91-.05l1.04 1.97c.31.59 1.11 1.07 1.77 1.07h4.06" />
  <path d="M14.97 22c5 0 7-2 7-7V9c0-5-2-7-7-7h-6c-5 0-7 2-7 7v6c0 5 2 7 7 7z" />
</svg>
